!!!SOCIAL_FUNCTION:	bird dance songs
!!!PDT:	1956
!!!OTL: No_125_Buzzard_Dance_Song_(a).krn
!!!LANG: Non-Tone
!!!LING_GROUP: Muskogean
!!!REG: Florida
**kern
*staff1
=1-
=
*clefF4
*k[b-e-a-]
*M3/4
8.e-\L
16B-\Jk
4..B-\
16B-\
=2
8.A-\L
16G\Jk
4G\
4r
=3||
*M2/4
8.E-\L
16G\Jk
8.G\L
16B-\Jk
=4||
*M3/8
8.A-\L
16G\K
8G\J
=5||
*M3/4
8.B-\L
16c\Jk
4..B-\
16B-\
=6
8.A-\L
16G\Jk
4G\
4r
=7||
*M2/4
8.E-\L
16G\Jk
8.G\L
16B-\Jk
=8||
*M3/8
8.A-\L
16G\K
8G\J
==:|!
*-
